X: 5
M:2/4
L:1/16
K:Bb
vFE|\
|:vde|\
fbBd f=egf | _edcB vG2vFE | DFBd BcdB | edcB vc2vde |
fbBd f=egf | _edcB vG2vFE | DFBd cBAc | B2d2B2:|


